resources/static/img/login/frame.svg

<svg width="422" height="290" viewBox="0 0 422 290" fill="none" xmlns="http://www.w3.org/2000/svg">
<g clip-path="url(#clip0)">
<path opacity="0.3" d="M220.111 290.223C341.676 290.223 440.223 191.676 440.223 70.1115C440.223 -51.4527 341.676 -150 220.111 -150C98.5473 -150 0 -51.4527 0 70.1115C0 191.676 98.5473 290.223 220.111 290.223Z" fill="white" fill-opacity="0.1"/>
<path opacity="0.3" d="M220.111 246.513C317.535 246.513 396.513 167.535 396.513 70.1114C396.513 -27.3124 317.535 -106.29 220.111 -106.29C122.688 -106.29 43.71 -27.3124 43.71 70.1114C43.71 167.535 122.688 246.513 220.111 246.513Z" fill="white" fill-opacity="0.1"/>
<path d="M97.0093 35.322C96.7863 35.991 96.5633 36.66 96.5633 37.3291C94.1101 46.4725 92.7721 55.6159 92.3261 64.5364C91.88 74.5718 92.7721 84.6073 94.5562 94.1968C103.477 140.137 137.374 179.387 185.545 192.991C224.794 204.141 265.159 195.444 295.712 173.143C309.538 163.107 321.358 150.172 330.278 135.231C335.854 125.864 340.314 115.606 343.436 104.678C346.335 94.6428 347.896 84.6073 348.119 74.7949C348.788 56.954 345.666 39.3362 339.422 23.2794C325.372 -12.6253 295.043 -41.8397 255.124 -52.9902C211.637 -65.2558 167.481 -53.6593 136.036 -26.452C117.749 -10.6182 103.923 10.3448 97.0093 35.322Z" fill="white" fill-opacity="0.1"/>
<path d="M97.0095 35.3223C96.7865 35.9913 96.5635 36.6603 96.5635 37.3294L347.896 74.7952C348.565 56.9543 345.443 39.3365 339.199 23.2797L136.036 -26.4517C117.749 -10.6179 103.923 10.3451 97.0095 35.3223Z" fill="white" fill-opacity="0.05"/>
<path d="M92.3261 64.7598C91.88 74.7952 92.7721 84.8307 94.5562 94.4202L295.489 173.366C309.315 163.33 321.135 150.396 330.055 135.454L92.3261 64.7598Z" fill="white" fill-opacity="0.05"/>
<path d="M153.431 11.9056C151.424 19.265 152.316 26.8473 155.661 33.0916C159.229 39.7819 165.473 45.1342 173.279 47.3643C188.443 51.6015 204.5 42.6811 208.737 27.5163C209.853 23.9482 210.076 20.157 209.629 16.5888C208.514 5.21529 200.486 -4.82018 188.889 -7.94233C173.502 -12.1795 157.668 -3.25911 153.431 11.9056Z" fill="#4741AD"/>
<path d="M156.553 22.3869C155.438 25.9551 155.215 29.7462 155.661 33.3144C159.229 40.0047 165.473 45.357 173.279 47.5871C188.443 51.8243 204.5 42.9039 208.737 27.7391C209.852 24.171 210.075 20.3798 209.629 16.8116C206.061 10.1213 199.817 4.76908 192.011 2.53897C176.624 -1.92124 160.79 6.99919 156.553 22.3869Z" fill="#5851D8" fill-opacity="0.5"/>
<path d="M270.735 95.5343C267.613 100.887 266.944 106.685 268.282 112.26C269.62 118.058 273.411 123.411 278.986 126.533C289.914 132.777 303.74 128.986 309.985 118.281C311.546 115.605 312.438 112.929 312.884 110.03C314.222 101.11 309.985 91.9661 301.733 87.0599C290.806 81.0386 276.979 84.8298 270.735 95.5343Z" fill="#4741AD"/>
<path d="M270.958 104.232C269.397 106.908 268.505 109.584 268.059 112.483C269.397 118.281 273.188 123.634 278.764 126.756C289.691 133 303.518 129.209 309.762 118.504C311.323 115.828 312.215 113.152 312.661 110.253C311.323 104.455 307.532 99.1025 301.957 95.9804C291.252 89.5131 277.426 93.3043 270.958 104.232Z" fill="#5851D8" fill-opacity="0.5"/>
<path d="M250.663 130.771C247.54 133.001 245.533 136.123 244.864 139.468C243.972 143.036 244.641 147.051 247.094 150.396C251.555 156.863 260.252 158.647 266.942 154.187C268.503 153.072 269.842 151.734 270.734 150.396C273.856 145.712 274.079 139.468 270.734 134.562C265.827 127.872 257.13 126.311 250.663 130.771Z" fill="#4741AD"/>
<path d="M248.433 135.677C246.872 136.792 245.534 138.13 244.642 139.468C243.75 143.036 244.419 147.051 246.872 150.396C251.332 156.863 260.03 158.647 266.72 154.187C268.281 153.072 269.619 151.734 270.511 150.396C271.403 146.828 270.734 142.813 268.281 139.468C263.821 132.778 254.901 131.217 248.433 135.677Z" fill="#5851D8" fill-opacity="0.5"/>
<path d="M215.651 14.8049C214.759 18.15 215.205 21.4952 216.543 24.1713C218.104 27.0704 220.78 29.5236 224.348 30.4156C231.038 32.4227 238.175 28.4085 240.182 21.4952C240.628 19.9341 240.851 18.15 240.628 16.5889C240.182 11.4597 236.614 6.99951 231.484 5.66145C224.571 4.10037 217.435 8.11456 215.651 14.8049Z" fill="#4741AD"/>
<path d="M216.989 19.4876C216.543 21.0487 216.32 22.8328 216.543 24.3939C218.104 27.293 220.78 29.7461 224.348 30.6382C231.039 32.6453 238.175 28.6311 240.182 21.7177C240.628 20.1567 240.851 18.3726 240.628 16.8115C239.067 13.9124 236.391 11.4593 232.823 10.5672C225.91 8.78313 218.773 12.5743 216.989 19.4876Z" fill="#5851D8"/>
<path d="M122.209 124.526C121.763 125.864 121.986 127.202 122.655 128.54C123.324 129.878 124.439 130.77 126.001 131.216C128.9 132.108 131.799 130.324 132.468 127.648C132.691 126.979 132.691 126.31 132.691 125.641C132.468 123.634 130.907 121.627 128.9 121.181C126.001 120.066 123.101 121.85 122.209 124.526Z" fill="#4741AD"/>
<path d="M122.878 126.533C122.655 127.202 122.655 127.871 122.655 128.54C123.324 129.878 124.439 130.77 126 131.216C128.899 132.108 131.798 130.324 132.468 127.648C132.691 126.979 132.691 126.31 132.691 125.641C132.021 124.303 130.906 123.411 129.345 122.965C126.446 122.073 123.547 123.634 122.878 126.533Z" fill="#5851D8" fill-opacity="0.5"/>
<path d="M169.487 123.188C168.149 123.411 166.811 124.08 166.142 125.195C165.25 126.31 164.804 127.648 165.027 129.209C165.473 132.108 168.149 134.116 171.048 133.67C171.717 133.67 172.386 133.224 172.832 133C174.617 131.885 175.732 129.878 175.286 127.648C175.063 124.749 172.386 122.742 169.487 123.188Z" fill="#4741AD"/>
<path d="M167.926 124.526C167.257 124.526 166.588 124.972 166.142 125.195C165.25 126.31 164.804 127.648 165.027 129.209C165.473 132.108 168.149 134.115 171.048 133.669C171.717 133.669 172.386 133.223 172.832 133C173.724 131.885 174.17 130.547 173.947 128.986C173.501 126.087 170.825 124.08 167.926 124.526Z" fill="#5851D8" fill-opacity="0.5"/>
</g>
<defs>
<clipPath id="clip0">
<rect width="440" height="440" fill="white" transform="translate(0 -150)"/>
</clipPath>
</defs>
</svg>

<?xml version="1.0" encoding="UTF-8" standalone="no"?><!DOCTYPE svg PUBLIC "-//W3C//DTD SVG 1.1//EN" "http://www.w3.org/Graphics/SVG/1.1/DTD/svg11.dtd"><svg width="100%" height="100%" viewBox="0 0 422 290" version="1.1" xmlns="http://www.w3.org/2000/svg" xmlns:xlink="http://www.w3.org/1999/xlink" xml:space="preserve" xmlns:serif="http://www.serif.com/" style="fill-rule:evenodd;clip-rule:evenodd;stroke-linejoin:round;stroke-miterlimit:2;"><g><clipPath id="_clip1"><rect x="0" y="-150" width="440" height="440"/></clipPath><g clip-path="url(#_clip1)"><path d="M220.111,290.223c121.565,0 220.112,-98.547 220.112,-220.112c0,-121.564 -98.547,-220.111 -220.112,-220.111c-121.564,0 -220.111,98.547 -220.111,220.112c0,121.564 98.547,220.111 220.111,220.111Z" style="fill:#fff;fill-opacity:0.03;fill-rule:nonzero;"/><path d="M220.111,246.513c97.424,0 176.402,-78.978 176.402,-176.402c-0,-97.423 -78.978,-176.401 -176.402,-176.401c-97.423,0 -176.401,78.978 -176.401,176.401c-0,97.424 78.978,176.402 176.401,176.402Z" style="fill:#fff;fill-opacity:0.03;fill-rule:nonzero;"/><path d="M97.009,35.322c-0.223,0.669 -0.446,1.338 -0.446,2.007c-2.453,9.143 -3.791,18.287 -4.237,27.207c-0.446,10.036 0.446,20.071 2.23,29.661c8.921,45.94 42.818,85.19 90.989,98.794c39.249,11.15 79.614,2.453 110.167,-19.848c13.826,-10.036 25.646,-22.971 34.566,-37.912c5.576,-9.367 10.036,-19.625 13.158,-30.553c2.899,-10.035 4.46,-20.071 4.683,-29.883c0.669,-17.841 -2.453,-35.459 -8.697,-51.516c-14.05,-35.904 -44.379,-65.119 -84.298,-76.269c-43.487,-12.266 -87.643,-0.669 -119.088,26.538c-18.287,15.834 -32.113,36.797 -39.027,61.774Z" style="fill:#fff;fill-opacity:0.1;fill-rule:nonzero;"/><path d="M97.01,35.322c-0.224,0.669 -0.447,1.338 -0.447,2.007l251.333,37.466c0.669,-17.841 -2.453,-35.459 -8.697,-51.515l-203.163,-49.732c-18.287,15.834 -32.113,36.797 -39.027,61.774Z" style="fill:#fff;fill-opacity:0.05;fill-rule:nonzero;"/><path d="M92.326,64.76c-0.446,10.035 0.446,20.071 2.23,29.66l200.933,78.946c13.826,-10.036 25.646,-22.97 34.566,-37.912l-237.729,-70.694Z" style="fill:#fff;fill-opacity:0.05;fill-rule:nonzero;"/><path d="M153.431,11.906c-2.007,7.359 -1.115,14.941 2.23,21.186c3.568,6.69 9.812,12.042 17.618,14.272c15.164,4.238 31.221,-4.683 35.458,-19.848c1.116,-3.568 1.339,-7.359 0.892,-10.927c-1.115,-11.374 -9.143,-21.409 -20.74,-24.531c-15.387,-4.238 -31.221,4.683 -35.458,19.848Z" style="fill:#41ada2;fill-rule:nonzero;"/><path d="M156.553,22.387c-1.115,3.568 -1.338,7.359 -0.892,10.927c3.568,6.691 9.812,12.043 17.618,14.273c15.164,4.237 31.221,-4.683 35.458,-19.848c1.115,-3.568 1.338,-7.359 0.892,-10.927c-3.568,-6.691 -9.812,-12.043 -17.618,-14.273c-15.387,-4.46 -31.221,4.46 -35.458,19.848Z" style="fill:#51d8cb;fill-opacity:0.5;fill-rule:nonzero;"/><path d="M270.735,95.534c-3.122,5.353 -3.791,11.151 -2.453,16.726c1.338,5.798 5.129,11.151 10.704,14.273c10.928,6.244 24.754,2.453 30.999,-8.252c1.561,-2.676 2.453,-5.352 2.899,-8.251c1.338,-8.92 -2.899,-18.064 -11.151,-22.97c-10.927,-6.021 -24.754,-2.23 -30.998,8.474Z" style="fill:#41ada2;fill-rule:nonzero;"/><path d="M270.958,104.232c-1.561,2.676 -2.453,5.352 -2.899,8.251c1.338,5.798 5.129,11.151 10.705,14.273c10.927,6.244 24.754,2.453 30.998,-8.252c1.561,-2.676 2.453,-5.352 2.899,-8.251c-1.338,-5.798 -5.129,-11.15 -10.704,-14.273c-10.705,-6.467 -24.531,-2.676 -30.999,8.252Z" style="fill:#51d8cb;fill-opacity:0.5;fill-rule:nonzero;"/><path d="M250.663,130.771c-3.123,2.23 -5.13,5.352 -5.799,8.697c-0.892,3.568 -0.223,7.583 2.23,10.928c4.461,6.467 13.158,8.251 19.848,3.791c1.561,-1.115 2.9,-2.453 3.792,-3.791c3.122,-4.684 3.345,-10.928 0,-15.834c-4.907,-6.69 -13.604,-8.251 -20.071,-3.791Z" style="fill:#41ada2;fill-rule:nonzero;"/><path d="M248.433,135.677c-1.561,1.115 -2.899,2.453 -3.791,3.791c-0.892,3.568 -0.223,7.583 2.23,10.928c4.46,6.467 13.158,8.251 19.848,3.791c1.561,-1.115 2.899,-2.453 3.791,-3.791c0.892,-3.568 0.223,-7.583 -2.23,-10.928c-4.46,-6.69 -13.38,-8.251 -19.848,-3.791Z" style="fill:#51d8cb;fill-opacity:0.5;fill-rule:nonzero;"/><path d="M215.651,14.805c-0.892,3.345 -0.446,6.69 0.892,9.366c1.561,2.899 4.237,5.353 7.805,6.245c6.69,2.007 13.827,-2.008 15.834,-8.921c0.446,-1.561 0.669,-3.345 0.446,-4.906c-0.446,-5.129 -4.014,-9.589 -9.144,-10.928c-6.913,-1.561 -14.049,2.454 -15.833,9.144Z" style="fill:#41ada2;fill-rule:nonzero;"/><path d="M216.989,19.488c-0.446,1.561 -0.669,3.345 -0.446,4.906c1.561,2.899 4.237,5.352 7.805,6.244c6.691,2.007 13.827,-2.007 15.834,-8.92c0.446,-1.561 0.669,-3.345 0.446,-4.906c-1.561,-2.9 -4.237,-5.353 -7.805,-6.245c-6.913,-1.784 -14.05,2.007 -15.834,8.921Z" style="fill:#51d8cb;fill-rule:nonzero;"/><path d="M122.209,124.526c-0.446,1.338 -0.223,2.676 0.446,4.014c0.669,1.338 1.784,2.23 3.346,2.676c2.899,0.892 5.798,-0.892 6.467,-3.568c0.223,-0.669 0.223,-1.338 0.223,-2.007c-0.223,-2.007 -1.784,-4.014 -3.791,-4.46c-2.899,-1.115 -5.799,0.669 -6.691,3.345Z" style="fill:#41ada2;fill-rule:nonzero;"/><path d="M122.878,126.533c-0.223,0.669 -0.223,1.338 -0.223,2.007c0.669,1.338 1.784,2.23 3.345,2.676c2.899,0.892 5.798,-0.892 6.468,-3.568c0.223,-0.669 0.223,-1.338 0.223,-2.007c-0.67,-1.338 -1.785,-2.23 -3.346,-2.676c-2.899,-0.892 -5.798,0.669 -6.467,3.568Z" style="fill:#51d8cb;fill-opacity:0.5;fill-rule:nonzero;"/><path d="M169.487,122.188c-1.338,0.223 -2.676,0.892 -3.345,2.007c-0.892,1.115 -1.338,2.453 -1.115,4.014c0.446,2.899 3.122,4.907 6.021,4.461c0.669,-0 1.338,-0.446 1.784,-0.67c1.785,-1.115 2.9,-3.122 2.454,-5.352c-0.223,-2.899 -2.9,-4.906 -5.799,-4.46Z" style="fill:#41ada2;fill-rule:nonzero;"/><path d="M167.926,124.526c-0.669,0 -1.338,0.446 -1.784,0.669c-0.892,1.115 -1.338,2.453 -1.115,4.014c0.446,2.899 3.122,4.906 6.021,4.46c0.669,0 1.338,-0.446 1.784,-0.669c0.892,-1.115 1.338,-2.453 1.115,-4.014c-0.446,-2.899 -3.122,-4.906 -6.021,-4.46Z" style="fill:#51d8cb;fill-opacity:0.5;fill-rule:nonzero;"/></g></g></svg>
